X:1
T:Title
%%score ( 1 2 3 ) { ( 4 6 7 ) | 5 }
L:1/8
Q:1/4=108
M:4/4
K:Ab
V:1 treble nm="Grand Piano, Soprano"
V:2 treble 
V:3 treble 
V:4 bass nm="Choir Pad, Tarring, 10.10.8.10"
V:6 bass 
V:7 bass 
V:5 bass 
V:1
 [Ec]2 [Ec]2 [DB]2 [CA]2 | A4 z2 D2 | [CE]2 E2 [FA]2 [FB]2 | A4 G4 | [EA]2 [EA]2 [DB]2 [Cc]2 | %5
w: By~Edward~John~Hopkins,~1886 * * *|||||
 B4 z2 C2 | [B,E]4 [DF]3 [DG] | [CA]8 | [B,G]4 [EA]2 [EB]2 | c2- [Cc-]2 [=Dc-]2 [Ec]2 | %10
w: |||||
 B2- [B,B]2 [EA]2 [=DF]2 | E2 B,2 D4 | [CE]2 [CE]2 [Cc]2 [CA]2 | z4 F4 | [CE]4 [DF]3 [DG] | %15
w: |||||
 [CA]8 |] %16
w: |
V:2
 x8 | z4 E4 | x8 | E8 | x8 | z4 F4 | x8 | x8 | x8 | E2 z2 z4 | E2 z2 z4 | x8 | x8 | [DG]4 C2 D2 | %14
 x8 | x8 |] %16
V:3
 x8 | B,6 z2 | x8 | x8 | x8 | D6 z2 | x8 | x8 | x8 | x8 | x8 | x8 | x8 | x8 | x8 | x8 |] %16
V:4
 E,2 F,2 G,2 A,2 | A,2 G,2 F,2 G,2 | A,2 B,2 C2 D2 | z4 B,4 | A,2 E,2 G,2 A,2 | z2 B,4 z2 | %6
 A,2 G,2 F,3 E, | E,8 | E,2 B,2 A,2 G,2 | F,4 _G,4 | G,4 F,2 A,2 | A,2 G,2 F,2 G,2 | %12
 A,2 A,2 A,2 A,2 | B,4 A,4 | A,2 C2 B,3 B, | A,8 |] %16
V:5
 G,,2 A,,2 A,,2 A,,2 | E,4 E,4 | z2 G,2 F,2 B,,2 | E,6 z2 | C,2 C,2 B,,2 G,,2 | D,4 z4 | E,4 E,4 | %7
 A,,8 | z2 =D,2 C,2 C,2 | =A,,8 | B,,4 B,,2 B,,2 | E,8 | z4 F,2 F,2 | =E,4 F,2 D,2 | E,4 E,3 E, | %15
 A,,8 |] %16
V:6
 x8 | x8 | x8 | C4 z2 D,2 | x8 | F,2 z2 z2 A,2 | x8 | x8 | x8 | x8 | x8 | x8 | x8 | x8 | x8 | x8 |] %16
V:7
 x8 | x8 | x8 | x8 | x8 | z4 B,,4 | x8 | x8 | x8 | x8 | x8 | x8 | x8 | x8 | x8 | x8 |] %16

